communes/587.svg

<?xml version="1.0" encoding="UTF-8" standalone="no"?>
<svg
   xmlns:dc="http://purl.org/dc/elements/1.1/"
   xmlns:cc="http://web.resource.org/cc/"
   xmlns:rdf="http://www.w3.org/1999/02/22-rdf-syntax-ns#"
   xmlns:svg="http://www.w3.org/2000/svg"
   xmlns="http://www.w3.org/2000/svg"
   xmlns:xlink="http://www.w3.org/1999/xlink"
   xmlns:sodipodi="http://sodipodi.sourceforge.net/DTD/sodipodi-0.dtd"
   xmlns:inkscape="http://www.inkscape.org/namespaces/inkscape"
   height="763"
   width="603"
   version="1.0"
   id="svg20"
   sodipodi:version="0.32"
   inkscape:version="0.44.1"
   sodipodi:docname="Matten bei Interlaken-coat of arms.svg"
   sodipodi:docbase="F:\Mis Documentos\Mis imágenes\Encyclopédie\Escudos de Suiza">
  <metadata
     id="metadata31">
    <rdf:RDF>
      <cc:Work
         rdf:about="">
        <dc:format>image/svg+xml</dc:format>
        <dc:type
           rdf:resource="http://purl.org/dc/dcmitype/StillImage" />
        <dc:date>07-AUG-2006</dc:date>
        <dc:creator>
          <cc:Agent>
            <dc:title>Jérôme BLUM (wagner51)</dc:title>
          </cc:Agent>
        </dc:creator>
        <cc:license
           rdf:resource="http://creativecommons.org/licenses/GPL/2.0/" />
        <dc:coverage />
        <dc:description>Gabarit pour le Projet:Blasons de WIkipédia</dc:description>
        <dc:subject>
          <rdf:Bag>
            <rdf:li>blason suisse modèle gabarit projet blasons</rdf:li>
          </rdf:Bag>
        </dc:subject>
        <dc:language>fr</dc:language>
        <dc:title>Gabrit d'un blason suisse</dc:title>
      </cc:Work>
      <cc:License
         rdf:about="http://creativecommons.org/licenses/GPL/2.0/">
        <cc:permits
           rdf:resource="http://web.resource.org/cc/Reproduction" />
        <cc:permits
           rdf:resource="http://web.resource.org/cc/Distribution" />
        <cc:requires
           rdf:resource="http://web.resource.org/cc/Notice" />
        <cc:permits
           rdf:resource="http://web.resource.org/cc/DerivativeWorks" />
        <cc:requires
           rdf:resource="http://web.resource.org/cc/ShareAlike" />
        <cc:requires
           rdf:resource="http://web.resource.org/cc/SourceCode" />
      </cc:License>
    </rdf:RDF>
  </metadata>
  <defs
     id="defs29">
    <linearGradient
       id="linearGradient2893">
      <stop
         style="stop-color:#ffffff;stop-opacity:0.3137255;"
         offset="0"
         id="stop2895" />
      <stop
         id="stop2897"
         offset="0.19"
         style="stop-color:#ffffff;stop-opacity:0.25098041;" />
      <stop
         style="stop-color:#6b6b6b;stop-opacity:0.1254902;"
         offset="0.60000002"
         id="stop2901" />
      <stop
         style="stop-color:#000000;stop-opacity:0.1254902;"
         offset="1"
         id="stop2899" />
    </linearGradient>
    <linearGradient
       id="linearGradient2955">
      <stop
         style="stop-color:white;stop-opacity:0;"
         offset="0"
         id="stop2965" />
      <stop
         style="stop-color:black;stop-opacity:0.64583331;"
         offset="1"
         id="stop2959" />
    </linearGradient>
    <radialGradient
       inkscape:collect="always"
       xlink:href="#linearGradient2893"
       id="radialGradient3236"
       gradientUnits="userSpaceOnUse"
       gradientTransform="matrix(1.215027,1.531577e-24,1.464684e-23,1.266667,-839.1924,-490.4894)"
       cx="858.04236"
       cy="579.93323"
       fx="858.04236"
       fy="579.93323"
       r="300" />
  </defs>
  <sodipodi:namedview
     inkscape:window-height="682"
     inkscape:window-width="1024"
     inkscape:pageshadow="2"
     inkscape:pageopacity="0.0"
     guidetolerance="10.0"
     gridtolerance="10.0"
     objecttolerance="10.0"
     borderopacity="1.0"
     bordercolor="#666666"
     pagecolor="#ffffff"
     id="base"
     inkscape:zoom="0.48301887"
     inkscape:cx="740.36204"
     inkscape:cy="271.4637"
     inkscape:window-x="-4"
     inkscape:window-y="-4"
     inkscape:current-layer="layer2"
     showgrid="true" />
  <desc
     id="desc22">Coat of Arms of Canton of Freiburg (Fribourg)</desc>
  <g
     inkscape:groupmode="layer"
     id="layer1"
     inkscape:label="Fond écu"
     sodipodi:insensitive="true">
    <path
       id="path1899"
       d="M 1.5,1.49998 L 1.5,460.3679 C 1.5,626.6785 135.81456,761.5 301.49999,761.5 C 467.18543,761.5 601.5,626.6785 601.5,460.3679 L 601.5,1.49998 L 1.5,1.49998 z "
       style="fill:#5ab532;fill-opacity:1" />
  </g>
  <g
     inkscape:groupmode="layer"
     id="layer2"
     inkscape:label="Meubles">
    <path
       style="opacity:1;fill:white;fill-opacity:1;fill-rule:evenodd;stroke:black;stroke-width:3.7824595;stroke-miterlimit:4;stroke-dasharray:none;stroke-opacity:1"
       d="M 1.8912298,284.34629 L 1.8912298,359.35485 L 2.0127996,359.35485 L 2.0127996,461.10877 L 601.10877,461.10877 L 601.10877,359.35485 L 601.10877,351.33124 L 601.10877,284.46785 L 476.6213,284.46785 L 476.6213,351.33124 L 360.03585,351.33124 L 360.03585,284.34629 L 239.19548,284.34629 L 239.19548,351.33124 L 124.19044,351.33124 L 124.19044,284.34629 L 1.8912298,284.34629 z "
       id="rect23480" />
    <path
       sodipodi:type="star"
       style="opacity:1;fill:#fcef3c;fill-opacity:1;fill-rule:evenodd;stroke:black;stroke-width:4.72872829;stroke-miterlimit:4;stroke-dasharray:none;stroke-opacity:1"
       id="path25263"
       sodipodi:sides="6"
       sodipodi:cx="1062.0703"
       sodipodi:cy="529.05469"
       sodipodi:r1="226.03413"
       sodipodi:r2="108.51122"
       sodipodi:arg1="0.49642275"
       sodipodi:arg2="1.0200215"
       inkscape:flatsided="false"
       inkscape:rounded="0"
       inkscape:randomized="0"
       d="M 1260.8203,636.71094 L 1118.8594,621.51919 L 1068.2123,755.00536 L 1010.3882,624.46774 L 869.46227,647.34911 L 953.59916,532.00323 L 863.32031,421.39844 L 1005.2812,436.59018 L 1055.9284,303.10402 L 1113.7524,433.64164 L 1254.6784,410.76026 L 1170.5415,526.10614 L 1260.8203,636.71094 z "
       transform="matrix(0.634051,2.163564e-2,-2.163564e-2,0.634051,-502.7776,-199.1409)" />
    <path
       transform="matrix(0.634051,2.163564e-2,-2.163564e-2,0.634051,-219.7776,-199.1409)"
       d="M 1260.8203,636.71094 L 1118.8594,621.51919 L 1068.2123,755.00536 L 1010.3882,624.46774 L 869.46227,647.34911 L 953.59916,532.00323 L 863.32031,421.39844 L 1005.2812,436.59018 L 1055.9284,303.10402 L 1113.7524,433.64164 L 1254.6784,410.76026 L 1170.5415,526.10614 L 1260.8203,636.71094 z "
       inkscape:randomized="0"
       inkscape:rounded="0"
       inkscape:flatsided="false"
       sodipodi:arg2="1.0200215"
       sodipodi:arg1="0.49642275"
       sodipodi:r2="108.51122"
       sodipodi:r1="226.03413"
       sodipodi:cy="529.05469"
       sodipodi:cx="1062.0703"
       sodipodi:sides="6"
       id="path26150"
       style="opacity:1;fill:#fcef3c;fill-opacity:1;fill-rule:evenodd;stroke:black;stroke-width:4.72872829;stroke-miterlimit:4;stroke-dasharray:none;stroke-opacity:1"
       sodipodi:type="star" />
    <path
       sodipodi:type="star"
       style="opacity:1;fill:#fcef3c;fill-opacity:1;fill-rule:evenodd;stroke:black;stroke-width:4.72872829;stroke-miterlimit:4;stroke-dasharray:none;stroke-opacity:1"
       id="path26152"
       sodipodi:sides="6"
       sodipodi:cx="1062.0703"
       sodipodi:cy="529.05469"
       sodipodi:r1="226.03413"
       sodipodi:r2="108.51122"
       sodipodi:arg1="0.49642275"
       sodipodi:arg2="1.0200215"
       inkscape:flatsided="false"
       inkscape:rounded="0"
       inkscape:randomized="0"
       d="M 1260.8203,636.71094 L 1118.8594,621.51919 L 1068.2123,755.00536 L 1010.3882,624.46774 L 869.46227,647.34911 L 953.59916,532.00323 L 863.32031,421.39844 L 1005.2812,436.59018 L 1055.9284,303.10402 L 1113.7524,433.64164 L 1254.6784,410.76026 L 1170.5415,526.10614 L 1260.8203,636.71094 z "
       transform="matrix(0.634205,1.651913e-2,-1.651913e-2,0.634205,-362.8305,260.0293)" />
  </g>
  <g
     inkscape:groupmode="layer"
     id="layer3"
     inkscape:label="Reflet final"
     style="display:inline"
     sodipodi:insensitive="true">
    <path
       style="fill:url(#radialGradient3236);fill-opacity:1"
       d="M 1.5,1.5 L 1.5,460.3679 C 1.5,626.67854 135.81454,761.5 301.49993,761.5 C 467.1854,761.5 601.5,626.67854 601.5,460.3679 L 601.5,1.5 L 1.5,1.5 z "
       id="path2346" />
  </g>
  <g
     inkscape:groupmode="layer"
     id="layer4"
     inkscape:label="Contour final"
     style="display:inline"
     sodipodi:insensitive="true">
    <path
       style="fill:none;fill-opacity:1;stroke:#000000;stroke-width:3;stroke-miterlimit:4;stroke-dasharray:none;stroke-opacity:1"
       d="M 1.5,1.5 L 1.5,460.36794 C 1.5,626.67854 135.81454,761.5 301.49993,761.5 C 467.1854,761.5 601.5,626.67854 601.5,460.36794 L 601.5,1.5 L 1.5,1.5 z "
       id="path3239" />
  </g>
</svg>

<?xml version="1.0" encoding="UTF-8"?>
<svg version="1.0" viewBox="0 0 603 763" xmlns="http://www.w3.org/2000/svg" xmlns:cc="http://web.resource.org/cc/" xmlns:dc="http://purl.org/dc/elements/1.1/" xmlns:rdf="http://www.w3.org/1999/02/22-rdf-syntax-ns#" xmlns:xlink="http://www.w3.org/1999/xlink">
<metadata>
<rdf:RDF>
<cc:Work rdf:about="">
<dc:format>image/svg+xml</dc:format>
<dc:type rdf:resource="http://purl.org/dc/dcmitype/StillImage"/>
<dc:date>07-AUG-2006</dc:date>
<dc:creator>
<cc:Agent>
<dc:title>Jérôme BLUM (wagner51)</dc:title>
</cc:Agent>
</dc:creator>
<cc:license rdf:resource="http://creativecommons.org/licenses/GPL/2.0/"/>
<dc:coverage/>
<dc:description>Gabarit pour le Projet:Blasons de WIkipédia</dc:description>
<dc:subject>
<rdf:Bag>
<rdf:li>blason suisse modèle gabarit projet blasons</rdf:li>
</rdf:Bag>
</dc:subject>
<dc:language>fr</dc:language>
<dc:title>Gabrit d'un blason suisse</dc:title>
</cc:Work>
<cc:License rdf:about="http://creativecommons.org/licenses/GPL/2.0/">
<cc:permits rdf:resource="http://web.resource.org/cc/Reproduction"/>
<cc:permits rdf:resource="http://web.resource.org/cc/Distribution"/>
<cc:requires rdf:resource="http://web.resource.org/cc/Notice"/>
<cc:permits rdf:resource="http://web.resource.org/cc/DerivativeWorks"/>
<cc:requires rdf:resource="http://web.resource.org/cc/ShareAlike"/>
<cc:requires rdf:resource="http://web.resource.org/cc/SourceCode"/>
</cc:License>
</rdf:RDF>
</metadata>
<defs>
<radialGradient id="a" cx="858.04" cy="579.93" r="300" gradientTransform="matrix(1.215 1.5316e-24 1.4647e-23 1.2667 -839.19 -490.49)" gradientUnits="userSpaceOnUse">
<stop stop-color="#fff" stop-opacity=".31373" offset="0"/>
<stop stop-color="#fff" stop-opacity=".25098" offset=".19"/>
<stop stop-color="#6b6b6b" stop-opacity=".12549" offset=".6"/>
<stop stop-opacity=".12549" offset="1"/>
</radialGradient>
</defs>
<desc>Coat of Arms of Canton of Freiburg (Fribourg)</desc>
<path d="m1.5 1.5v458.87c0 166.31 134.31 301.13 300 301.13 165.69 0 300-134.82 300-301.13v-458.87h-600z" fill="#5ab532"/>
<g fill-rule="evenodd" stroke="#000">
<path d="m1.8912 284.35v75.009h0.12157v101.75h599.1v-101.75-8.0236-66.863h-124.49v66.863h-116.59v-66.985h-120.84v66.985h-115.01v-66.985h-122.3z" fill="#fff" stroke-width="3.7825"/>
<path transform="matrix(.63405 .021636 -.021636 .63405 -502.78 -199.14)" d="m1260.8 636.71-141.96-15.192-50.647 133.49-57.824-130.54-140.93 22.881 84.137-115.35-90.279-110.6 141.96 15.192 50.647-133.49 57.824 130.54 140.93-22.881-84.137 115.35 90.279 110.6z" fill="#fcef3c" stroke-width="4.7287"/>
<path transform="matrix(.63405 .021636 -.021636 .63405 -219.78 -199.14)" d="m1260.8 636.71-141.96-15.192-50.647 133.49-57.824-130.54-140.93 22.881 84.137-115.35-90.279-110.6 141.96 15.192 50.647-133.49 57.824 130.54 140.93-22.881-84.137 115.35 90.279 110.6z" fill="#fcef3c" stroke-width="4.7287"/>
<path transform="matrix(.6342 .016519 -.016519 .6342 -362.83 260.03)" d="m1260.8 636.71-141.96-15.192-50.647 133.49-57.824-130.54-140.93 22.881 84.137-115.35-90.279-110.6 141.96 15.192 50.647-133.49 57.824 130.54 140.93-22.881-84.137 115.35 90.279 110.6z" fill="#fcef3c" stroke-width="4.7287"/>
</g>
<g>
<path d="m1.5 1.5v458.87c0 166.31 134.31 301.13 300 301.13 165.69 0 300-134.82 300-301.13v-458.87h-600z" fill="url(#a)"/>
<path d="m1.5 1.5v458.87c0 166.31 134.31 301.13 300 301.13 165.69 0 300-134.82 300-301.13v-458.87h-600z" fill="none" stroke="#000" stroke-width="3"/>
</g>
</svg>
